elementary-xfce/devices/32/network-cellular.svg

<?xml version="1.0" encoding="UTF-8" standalone="no"?>
<svg
   version="1.1"
   width="32"
   height="32"
   id="svg6860"
   xmlns:xlink="http://www.w3.org/1999/xlink"
   xmlns="http://www.w3.org/2000/svg"
   xmlns:svg="http://www.w3.org/2000/svg"
   xmlns:rdf="http://www.w3.org/1999/02/22-rdf-syntax-ns#"
   xmlns:cc="http://creativecommons.org/ns#"
   xmlns:dc="http://purl.org/dc/elements/1.1/">
  <defs
     id="defs6862">
    <linearGradient
       x1="23.99999"
       y1="6.2399855"
       x2="23.99999"
       y2="41.759987"
       id="linearGradient4161"
       xlink:href="#linearGradient3924-0"
       gradientUnits="userSpaceOnUse"
       gradientTransform="matrix(0.67567568,0,0,0.67567568,-0.21621703,-0.21620627)" />
    <linearGradient
       id="linearGradient3924-0">
      <stop
         id="stop3926-6"
         style="stop-color:#ffffff;stop-opacity:1"
         offset="0" />
      <stop
         id="stop3928-3"
         style="stop-color:#ffffff;stop-opacity:0.23529412"
         offset="0.04166666" />
      <stop
         id="stop3930-2"
         style="stop-color:#ffffff;stop-opacity:0.15686275"
         offset="0.95833325" />
      <stop
         id="stop3932-62"
         style="stop-color:#ffffff;stop-opacity:0.39215687"
         offset="1" />
    </linearGradient>
    <radialGradient
       cx="4.9929786"
       cy="43.5"
       r="2.5"
       fx="4.9929786"
       fy="43.5"
       id="radialGradient2976"
       xlink:href="#linearGradient3688-166-749-6"
       gradientUnits="userSpaceOnUse"
       gradientTransform="matrix(2.003784,0,0,1.4,27.98813,-17.4)" />
    <linearGradient
       id="linearGradient3688-166-749-6">
      <stop
         id="stop2883-8"
         style="stop-color:#181818;stop-opacity:1"
         offset="0" />
      <stop
         id="stop2885-3"
         style="stop-color:#181818;stop-opacity:0"
         offset="1" />
    </linearGradient>
    <radialGradient
       cx="4.9929786"
       cy="43.5"
       r="2.5"
       fx="4.9929786"
       fy="43.5"
       id="radialGradient2978"
       xlink:href="#linearGradient3688-464-309-7"
       gradientUnits="userSpaceOnUse"
       gradientTransform="matrix(2.003784,0,0,1.4,-20.01187,-104.4)" />
    <linearGradient
       id="linearGradient3688-464-309-7">
      <stop
         id="stop2889-0"
         style="stop-color:#181818;stop-opacity:1"
         offset="0" />
      <stop
         id="stop2891-66"
         style="stop-color:#181818;stop-opacity:0"
         offset="1" />
    </linearGradient>
    <linearGradient
       x1="25.058096"
       y1="47.027729"
       x2="25.058096"
       y2="39.999443"
       id="linearGradient2980"
       xlink:href="#linearGradient3702-501-757-3"
       gradientUnits="userSpaceOnUse" />
    <linearGradient
       id="linearGradient3702-501-757-3">
      <stop
         id="stop2895-3"
         style="stop-color:#181818;stop-opacity:0"
         offset="0" />
      <stop
         id="stop2897-28"
         style="stop-color:#181818;stop-opacity:1"
         offset="0.5" />
      <stop
         id="stop2899-8"
         style="stop-color:#181818;stop-opacity:0"
         offset="1" />
    </linearGradient>
    <linearGradient
       id="linearGradient78">
      <stop
         id="stop74"
         offset="0"
         style="stop-color:#9bdb4d;stop-opacity:1" />
      <stop
         id="stop76"
         offset="1"
         style="stop-color:#68b723;stop-opacity:1" />
    </linearGradient>
    <linearGradient
       xlink:href="#linearGradient78"
       id="linearGradient1304"
       gradientUnits="userSpaceOnUse"
       gradientTransform="matrix(0,1.3333333,-1.3333333,0,-67.426646,3.9433882)"
       x1="-0.63154298"
       y1="-62.960026"
       x2="19.507582"
       y2="-62.960026" />
  </defs>
  <metadata
     id="metadata6865">
    <rdf:RDF>
      <cc:Work
         rdf:about="">
        <dc:format>image/svg+xml</dc:format>
        <dc:type
           rdf:resource="http://purl.org/dc/dcmitype/StillImage" />
      </cc:Work>
    </rdf:RDF>
  </metadata>
  <g
     style="display:inline"
     id="g2036-2"
     transform="matrix(0.6999997,0,0,0.3333336,-0.8000002,15.33333)">
    <g
       style="opacity:0.4"
       id="g3712-3"
       transform="matrix(1.052632,0,0,1.285713,-1.263158,-13.42854)">
      <rect
         style="fill:url(#radialGradient2976);fill-opacity:1;stroke:none"
         id="rect2801-0"
         y="40"
         x="38"
         height="7"
         width="5" />
      <rect
         style="fill:url(#radialGradient2978);fill-opacity:1;stroke:none"
         id="rect3696-2"
         transform="scale(-1,-1)"
         y="-47"
         x="-10"
         height="7"
         width="5" />
      <rect
         style="fill:url(#linearGradient2980);fill-opacity:1;stroke:none"
         id="rect3700-1"
         y="40"
         x="10"
         height="7.0000005"
         width="28" />
    </g>
  </g>
  <rect
     style="color:#000000;display:inline;overflow:visible;visibility:visible;opacity:1;fill:url(#linearGradient1304);fill-opacity:1;fill-rule:nonzero;stroke:#206b00;stroke-width:1;stroke-opacity:0.5;marker:none;enable-background:accumulate;font-variation-settings:normal;vector-effect:none;stroke-linecap:round;stroke-linejoin:round;stroke-miterlimit:4;stroke-dasharray:none;stroke-dashoffset:0;-inkscape-stroke:none;stop-color:#000000;stop-opacity:1"
     id="rect5505-21-1"
     y="2.4999962"
     x="2.4999962"
     ry="3"
     rx="3"
     height="27.000008"
     width="27.000008" />
  <rect
     style="opacity:0.5;fill:none;stroke:url(#linearGradient4161);stroke-width:1;stroke-linecap:round;stroke-linejoin:round;stroke-miterlimit:4;stroke-dasharray:none;stroke-dashoffset:0;stroke-opacity:1"
     id="rect6741-7-4"
     y="3.4999998"
     x="3.5"
     ry="2"
     rx="2"
     height="25"
     width="25" />
  <path
     style="color:#000000;clip-rule:nonzero;display:inline;overflow:visible;visibility:visible;opacity:0.05;isolation:auto;mix-blend-mode:normal;color-interpolation:sRGB;color-interpolation-filters:linearRGB;solid-color:#000000;solid-opacity:1;fill:#206b00;fill-opacity:1;fill-rule:nonzero;stroke:none;stroke-width:0.842404;stroke-linecap:butt;stroke-linejoin:miter;stroke-miterlimit:4;stroke-dasharray:none;stroke-dashoffset:0;stroke-opacity:1;marker:none;color-rendering:auto;image-rendering:auto;shape-rendering:auto;text-rendering:auto;enable-background:accumulate"
     id="path4379"
     d="M 9.9441772,8.0000005 A 1.0075781,1.007822 0 0 0 9.0311284,8.5795755 L 8.0946682,10.577841 a 1.0075781,1.007822 0 0 0 0.2009488,1.139636 l 5.698751,5.70013 v 7.575455 A 1.0075781,1.007822 0 0 0 15.001062,26 h 1.997782 a 1.0075781,1.007822 0 0 0 1.006695,-1.006938 v -7.575455 l 5.698751,-5.70013 a 1.0075781,1.007822 0 0 0 0.232163,-1.065482 L 23.187285,8.6537299 A 1.0075781,1.007822 0 0 0 22.243022,8.0000005 Z" />
  <path
     d="M 9.938,9 9,11 l 6,6 v 8 h 2 v -8 l 6,-6 -0.75,-2 z m 1.812,2 H 15 v 3.25 z M 17,11 h 3.25 L 17,14.25 Z"
     overflow="visible"
     style="color:#000000;clip-rule:nonzero;display:inline;overflow:visible;visibility:visible;opacity:0.15;isolation:auto;mix-blend-mode:normal;color-interpolation:sRGB;color-interpolation-filters:linearRGB;solid-color:#000000;solid-opacity:1;fill:#206b00;fill-opacity:1;fill-rule:nonzero;stroke:none;stroke-width:0.843237;stroke-linecap:butt;stroke-linejoin:miter;stroke-miterlimit:4;stroke-dasharray:none;stroke-dashoffset:0;stroke-opacity:1;marker:none;color-rendering:auto;image-rendering:auto;shape-rendering:auto;text-rendering:auto;enable-background:accumulate"
     id="path3381-6" />
  <g
     id="g3379"
     transform="translate(-622.12712,134.9661)"
     style="color:#000000;clip-rule:nonzero;display:inline;overflow:visible;visibility:visible;isolation:auto;mix-blend-mode:normal;color-interpolation:sRGB;color-interpolation-filters:linearRGB;solid-color:#000000;solid-opacity:1;fill:#ffffff;fill-opacity:1;fill-rule:evenodd;stroke:none;stroke-width:2;stroke-linecap:butt;stroke-linejoin:round;stroke-miterlimit:4;stroke-dasharray:none;stroke-dashoffset:0;stroke-opacity:1;color-rendering:auto;image-rendering:auto;shape-rendering:auto;text-rendering:auto;enable-background:accumulate">
    <path
       id="path3381"
       style="color:#000000;clip-rule:nonzero;display:inline;overflow:visible;visibility:visible;isolation:auto;mix-blend-mode:normal;color-interpolation:sRGB;color-interpolation-filters:linearRGB;solid-color:#000000;solid-opacity:1;fill:#ffffff;fill-opacity:1;fill-rule:evenodd;stroke:none;stroke-width:2;stroke-linecap:butt;stroke-linejoin:round;stroke-miterlimit:4;stroke-dasharray:none;stroke-dashoffset:0;stroke-opacity:1;marker:none;color-rendering:auto;image-rendering:auto;shape-rendering:auto;text-rendering:auto;enable-background:accumulate"
       overflow="visible"
       d="m 632.06512,-126.9661 -0.938,2 6,6 v 8 h 2 v -8 l 6,-6 -0.75,-2 z m 1.812,2 h 3.25 v 3.25 z m 5.25,0 h 3.25 l -3.25,3.25 z" />
  </g>
  <path
     id="path3381-1"
     style="color:#000000;font-variation-settings:normal;clip-rule:nonzero;display:inline;overflow:visible;visibility:visible;opacity:0.15;isolation:auto;mix-blend-mode:normal;color-interpolation:sRGB;color-interpolation-filters:linearRGB;solid-color:#000000;solid-opacity:1;vector-effect:none;fill:#206b00;fill-opacity:0.501961;fill-rule:evenodd;stroke:none;stroke-width:1.07265;stroke-linecap:butt;stroke-linejoin:miter;stroke-miterlimit:4;stroke-dasharray:none;stroke-dashoffset:0;stroke-opacity:1;-inkscape-stroke:none;marker:none;color-rendering:auto;image-rendering:auto;shape-rendering:auto;text-rendering:auto;enable-background:accumulate;stop-color:#000000"
     d="M 11.75 9 L 12.75 10 L 15 10 L 15 9 L 11.75 9 z M 17 9 L 17 10 L 19.25 10 L 20.25 9 L 17 9 z M 22.726562 9.2734375 L 17 15 L 17 16 L 23 10 L 22.726562 9.2734375 z M 9.3183594 9.3183594 L 9 10 L 15 16 L 15 15 L 9.3183594 9.3183594 z M 15 23 L 15 24 L 17 24 L 17 23 L 15 23 z " />
</svg>

<?xml version="1.0" encoding="UTF-8" standalone="no"?>
<svg
   version="1.1"
   width="32"
   height="32"
   id="svg6860"
   xmlns:xlink="http://www.w3.org/1999/xlink"
   xmlns="http://www.w3.org/2000/svg"
   xmlns:svg="http://www.w3.org/2000/svg"
   xmlns:rdf="http://www.w3.org/1999/02/22-rdf-syntax-ns#"
   xmlns:cc="http://creativecommons.org/ns#"
   xmlns:dc="http://purl.org/dc/elements/1.1/">
  <defs
     id="defs6862">
    <linearGradient
       x1="23.99999"
       y1="6.2399855"
       x2="23.99999"
       y2="41.759987"
       id="linearGradient4161"
       xlink:href="#linearGradient3924-0"
       gradientUnits="userSpaceOnUse"
       gradientTransform="matrix(0.67567568,0,0,0.67567568,-0.21621703,-0.21620627)" />
    <linearGradient
       id="linearGradient3924-0">
      <stop
         id="stop3926-6"
         style="stop-color:#ffffff;stop-opacity:1"
         offset="0" />
      <stop
         id="stop3928-3"
         style="stop-color:#ffffff;stop-opacity:0.23529412"
         offset="0.04166666" />
      <stop
         id="stop3930-2"
         style="stop-color:#ffffff;stop-opacity:0.15686275"
         offset="0.95833325" />
      <stop
         id="stop3932-62"
         style="stop-color:#ffffff;stop-opacity:0.39215687"
         offset="1" />
    </linearGradient>
    <radialGradient
       cx="4.9929786"
       cy="43.5"
       r="2.5"
       fx="4.9929786"
       fy="43.5"
       id="radialGradient2976"
       xlink:href="#linearGradient3688-166-749-6"
       gradientUnits="userSpaceOnUse"
       gradientTransform="matrix(2.003784,0,0,1.4,27.98813,-17.4)" />
    <linearGradient
       id="linearGradient3688-166-749-6">
      <stop
         id="stop2883-8"
         style="stop-color:#181818;stop-opacity:1"
         offset="0" />
      <stop
         id="stop2885-3"
         style="stop-color:#181818;stop-opacity:0"
         offset="1" />
    </linearGradient>
    <radialGradient
       cx="4.9929786"
       cy="43.5"
       r="2.5"
       fx="4.9929786"
       fy="43.5"
       id="radialGradient2978"
       xlink:href="#linearGradient3688-464-309-7"
       gradientUnits="userSpaceOnUse"
       gradientTransform="matrix(2.003784,0,0,1.4,-20.01187,-104.4)" />
    <linearGradient
       id="linearGradient3688-464-309-7">
      <stop
         id="stop2889-0"
         style="stop-color:#181818;stop-opacity:1"
         offset="0" />
      <stop
         id="stop2891-66"
         style="stop-color:#181818;stop-opacity:0"
         offset="1" />
    </linearGradient>
    <linearGradient
       x1="25.058096"
       y1="47.027729"
       x2="25.058096"
       y2="39.999443"
       id="linearGradient2980"
       xlink:href="#linearGradient3702-501-757-3"
       gradientUnits="userSpaceOnUse" />
    <linearGradient
       id="linearGradient3702-501-757-3">
      <stop
         id="stop2895-3"
         style="stop-color:#181818;stop-opacity:0"
         offset="0" />
      <stop
         id="stop2897-28"
         style="stop-color:#181818;stop-opacity:1"
         offset="0.5" />
      <stop
         id="stop2899-8"
         style="stop-color:#181818;stop-opacity:0"
         offset="1" />
    </linearGradient>
    <linearGradient
       id="linearGradient78">
      <stop
         id="stop74"
         offset="0"
         style="stop-color:#9bdb4d;stop-opacity:1" />
      <stop
         id="stop76"
         offset="1"
         style="stop-color:#68b723;stop-opacity:1" />
    </linearGradient>
    <linearGradient
       xlink:href="#linearGradient78"
       id="linearGradient1304"
       gradientUnits="userSpaceOnUse"
       gradientTransform="matrix(0,1.3333333,-1.3333333,0,-67.426646,3.9433882)"
       x1="-0.63154298"
       y1="-62.960026"
       x2="19.507582"
       y2="-62.960026" />
  </defs>
  <metadata
     id="metadata6865">
    <rdf:RDF>
      <cc:Work
         rdf:about="">
        <dc:format>image/svg+xml</dc:format>
        <dc:type
           rdf:resource="http://purl.org/dc/dcmitype/StillImage" />
      </cc:Work>
    </rdf:RDF>
  </metadata>
  <g
     style="display:inline"
     id="g2036-2"
     transform="matrix(0.6999997,0,0,0.3333336,-0.8000002,15.33333)">
    <g
       style="opacity:0.4"
       id="g3712-3"
       transform="matrix(1.052632,0,0,1.285713,-1.263158,-13.42854)">
      <rect
         style="fill:url(#radialGradient2976);fill-opacity:1;stroke:none"
         id="rect2801-0"
         y="40"
         x="38"
         height="7"
         width="5" />
      <rect
         style="fill:url(#radialGradient2978);fill-opacity:1;stroke:none"
         id="rect3696-2"
         transform="scale(-1)"
         y="-47"
         x="-10"
         height="7"
         width="5" />
      <rect
         style="fill:url(#linearGradient2980);fill-opacity:1;stroke:none"
         id="rect3700-1"
         y="40"
         x="10"
         height="7.0000005"
         width="28" />
    </g>
  </g>
  <rect
     style="color:#000000;font-variation-settings:normal;display:inline;overflow:visible;visibility:visible;opacity:1;vector-effect:none;fill:url(#linearGradient1304);fill-opacity:1;fill-rule:nonzero;stroke:#206b00;stroke-width:1;stroke-linecap:round;stroke-linejoin:round;stroke-miterlimit:4;stroke-dasharray:none;stroke-dashoffset:0;stroke-opacity:0.5;-inkscape-stroke:none;marker:none;enable-background:accumulate;stop-color:#000000;stop-opacity:1"
     id="rect5505-21-1"
     y="2.4999962"
     x="2.4999962"
     ry="2.1425033"
     rx="2.1634243"
     height="27.000008"
     width="27.000008" />
  <rect
     style="display:inline;opacity:0.5;fill:none;stroke:url(#linearGradient4161);stroke-width:1;stroke-linecap:round;stroke-linejoin:round;stroke-miterlimit:4;stroke-dasharray:none;stroke-dashoffset:0;stroke-opacity:1"
     id="rect6741-7-4"
     y="3.4999998"
     x="3.5"
     ry="1.1500673"
     rx="1.1387498"
     height="25"
     width="25" />
  <path
     style="color:#000000;clip-rule:nonzero;display:inline;overflow:visible;visibility:visible;opacity:0.05;isolation:auto;mix-blend-mode:normal;color-interpolation:sRGB;color-interpolation-filters:linearRGB;solid-color:#000000;solid-opacity:1;fill:#206b00;fill-opacity:1;fill-rule:nonzero;stroke:none;stroke-width:0.842404;stroke-linecap:butt;stroke-linejoin:miter;stroke-miterlimit:4;stroke-dasharray:none;stroke-dashoffset:0;stroke-opacity:1;marker:none;color-rendering:auto;image-rendering:auto;shape-rendering:auto;text-rendering:auto;enable-background:accumulate"
     id="path4379"
     d="M 9.9441772,8.0000005 A 1.0075781,1.007822 0 0 0 9.0311284,8.5795755 L 8.0946682,10.577841 a 1.0075781,1.007822 0 0 0 0.2009488,1.139636 l 5.698751,5.70013 v 7.575455 A 1.0075781,1.007822 0 0 0 15.001062,26 h 1.997782 a 1.0075781,1.007822 0 0 0 1.006695,-1.006938 v -7.575455 l 5.698751,-5.70013 a 1.0075781,1.007822 0 0 0 0.232163,-1.065482 L 23.187285,8.6537299 A 1.0075781,1.007822 0 0 0 22.243022,8.0000005 Z" />
  <path
     d="M 9.938,9 9,11 l 6,6 v 8 h 2 v -8 l 6,-6 -0.75,-2 z m 1.812,2 H 15 v 3.25 z M 17,11 h 3.25 L 17,14.25 Z"
     overflow="visible"
     style="color:#000000;clip-rule:nonzero;display:inline;overflow:visible;visibility:visible;opacity:0.15;isolation:auto;mix-blend-mode:normal;color-interpolation:sRGB;color-interpolation-filters:linearRGB;solid-color:#000000;solid-opacity:1;fill:#206b00;fill-opacity:1;fill-rule:nonzero;stroke:none;stroke-width:0.843237;stroke-linecap:butt;stroke-linejoin:miter;stroke-miterlimit:4;stroke-dasharray:none;stroke-dashoffset:0;stroke-opacity:1;marker:none;color-rendering:auto;image-rendering:auto;shape-rendering:auto;text-rendering:auto;enable-background:accumulate"
     id="path3381-6" />
  <g
     id="g3379"
     transform="translate(-622.12712,134.9661)"
     style="color:#000000;clip-rule:nonzero;display:inline;overflow:visible;visibility:visible;isolation:auto;mix-blend-mode:normal;color-interpolation:sRGB;color-interpolation-filters:linearRGB;solid-color:#000000;solid-opacity:1;fill:#ffffff;fill-opacity:1;fill-rule:evenodd;stroke:none;stroke-width:2;stroke-linecap:butt;stroke-linejoin:round;stroke-miterlimit:4;stroke-dasharray:none;stroke-dashoffset:0;stroke-opacity:1;color-rendering:auto;image-rendering:auto;shape-rendering:auto;text-rendering:auto;enable-background:accumulate">
    <path
       id="path3381"
       style="color:#000000;clip-rule:nonzero;display:inline;overflow:visible;visibility:visible;isolation:auto;mix-blend-mode:normal;color-interpolation:sRGB;color-interpolation-filters:linearRGB;solid-color:#000000;solid-opacity:1;fill:#ffffff;fill-opacity:1;fill-rule:evenodd;stroke:none;stroke-width:2;stroke-linecap:butt;stroke-linejoin:round;stroke-miterlimit:4;stroke-dasharray:none;stroke-dashoffset:0;stroke-opacity:1;marker:none;color-rendering:auto;image-rendering:auto;shape-rendering:auto;text-rendering:auto;enable-background:accumulate"
       overflow="visible"
       d="m 632.06512,-126.9661 -0.938,2 6,6 v 8 h 2 v -8 l 6,-6 -0.75,-2 z m 1.812,2 h 3.25 v 3.25 z m 5.25,0 h 3.25 l -3.25,3.25 z" />
  </g>
  <path
     id="path3381-1"
     style="color:#000000;font-variation-settings:normal;clip-rule:nonzero;display:inline;overflow:visible;visibility:visible;opacity:0.15;isolation:auto;mix-blend-mode:normal;color-interpolation:sRGB;color-interpolation-filters:linearRGB;solid-color:#000000;solid-opacity:1;vector-effect:none;fill:#206b00;fill-opacity:0.501961;fill-rule:evenodd;stroke:none;stroke-width:1.07265;stroke-linecap:butt;stroke-linejoin:miter;stroke-miterlimit:4;stroke-dasharray:none;stroke-dashoffset:0;stroke-opacity:1;-inkscape-stroke:none;marker:none;color-rendering:auto;image-rendering:auto;shape-rendering:auto;text-rendering:auto;enable-background:accumulate;stop-color:#000000"
     d="m 11.75,9 1,1 H 15 V 9 Z M 17,9 v 1 h 2.25 l 1,-1 z M 22.726562,9.2734375 17,15 v 1 l 6,-6 z M 9.3183594,9.3183594 9,10 15,16 V 15 Z M 15,23 v 1 h 2 v -1 z" />
</svg>
